Unicodia/Resources/Scripts/110D0.svg

<?xml version="1.0" encoding="UTF-8" standalone="no"?>
<!-- Created with Inkscape (http://www.inkscape.org/) -->

<svg
   width="16"
   height="16"
   viewBox="0 0 16 16"
   version="1.1"
   id="svg5"
   inkscape:version="1.2.2 (732a01da63, 2022-12-09)"
   sodipodi:docname="110D0.svg"
   inkscape:export-filename="..\0000.png"
   inkscape:export-xdpi="96"
   inkscape:export-ydpi="96"
   xml:space="preserve"
   xmlns:inkscape="http://www.inkscape.org/namespaces/inkscape"
   xmlns:sodipodi="http://sodipodi.sourceforge.net/DTD/sodipodi-0.dtd"
   xmlns="http://www.w3.org/2000/svg"
   xmlns:svg="http://www.w3.org/2000/svg"><sodipodi:namedview
     id="namedview7"
     pagecolor="#ffffff"
     bordercolor="#666666"
     borderopacity="1.0"
     inkscape:pageshadow="2"
     inkscape:pageopacity="0"
     inkscape:pagecheckerboard="0"
     inkscape:document-units="px"
     showgrid="true"
     width="16mm"
     units="px"
     inkscape:zoom="22.627417"
     inkscape:cx="-0.26516504"
     inkscape:cy="8.7946406"
     inkscape:window-width="1680"
     inkscape:window-height="998"
     inkscape:window-x="-8"
     inkscape:window-y="-8"
     inkscape:window-maximized="1"
     inkscape:current-layer="layer1"
     showguides="true"
     inkscape:guide-bbox="true"
     inkscape:snap-bbox="true"
     inkscape:bbox-paths="true"
     inkscape:bbox-nodes="true"
     inkscape:snap-global="true"
     inkscape:showpageshadow="2"
     inkscape:deskcolor="#ffffff"><inkscape:grid
       type="xygrid"
       id="grid828"
       originx="0"
       originy="0" /></sodipodi:namedview><defs
     id="defs2" /><g
     inkscape:label="Layer 1"
     inkscape:groupmode="layer"
     id="layer1"><rect
       style="opacity:1;fill:#ffff83;stroke:none;stroke-width:4.4376;stroke-linejoin:bevel;stop-color:#000000;fill-opacity:1"
       id="rect691"
       width="16"
       height="16"
       x="0"
       y="0" /><path
       d="m 11.719587,3.9443297 c 0.226756,0 0.754152,0.049988 1.087286,0.4810996 l 0.04811,-0.019244 C 12.826216,3.8306978 12.624778,2.077663 11.238488,2.077663 c -2.4264937,0 -3.8914091,5.9637593 -3.8914091,9.419931 v 3.502405 H 6 V 4.3292094 H 5.942268 C 5.7209621,4.8680409 5.781443,4.8680409 3.260481,11.170446 L 2,10.612371 6,0.99999982 H 7.164261 V 5.3010306 H 7.221993 C 8.0594066,2.5894088 9.3250973,0.65360816 11.161512,0.65360816 12.772869,0.65360816 14,2.1303146 14,4.5505152 c 0,2.2825195 -1.077441,3.1945016 -2.164949,3.1945016 -1.118517,0 -1.8666664,-0.9371763 -1.8666664,-1.9628866 0,-1.098081 0.8186774,-1.8378005 1.7512024,-1.8378005 z m 0.105839,2.6364259 c 0.424251,0 0.740894,-0.345978 0.740894,-0.8274913 0,-0.5107268 -0.339597,-0.7890035 -0.721649,-0.7890035 -0.439503,0 -0.750516,0.339589 -0.750516,0.8178694 0,0.4805454 0.331123,0.7986254 0.731271,0.7986254 z"
       id="path9353"
       style="fill:#f57900;stroke-width:0.999999"
       sodipodi:nodetypes="sccssccccccccccssssssssss" /></g></svg>

<svg height="16" viewBox="0 0 16 16" width="16" xmlns="http://www.w3.org/2000/svg"><path d="m0 0h16v16h-16z" fill="#ffff83"/><path d="m11.72 3.94c.23 0 .75.05 1.09.48l.05-.02c-.03-.57-.24-2.32-1.62-2.32-2.43 0-3.89 5.96-3.89 9.42v3.5h-1.35v-10.67h-.06c-.22.54-.16.54-2.68 6.84l-1.26-.56 4-9.61h1.16v4.3h.06c.84-2.71 2.11-4.65 3.94-4.65 1.61 0 2.84 1.48 2.84 3.9 0 2.28-1.08 3.19-2.16 3.19-1.12 0-1.87-.94-1.87-1.96 0-1.1.82-1.84 1.75-1.84zm.11 2.64c.42 0 .74-.35.74-.83 0-.51-.34-.79-.72-.79-.44 0-.75.34-.75.82s.33.8.73.8z" fill="#f57900"/></svg>
